public/assets/max.svg

<svg width="30" height="16" viewBox="0 0 30 16" fill="none" xmlns="http://www.w3.org/2000/svg">
<path fill-rule="evenodd" clip-rule="evenodd" d="M2 0C0.895431 0 0 0.895431 0 2V14C0 15.1046 0.89543 16 2 16H28C29.1046 16 30 15.1046 30 14V2C30 0.895431 29.1046 0 28 0H2ZM5.68977 11C6.07071 11 6.37953 10.7314 6.37953 10.4V6.2H7.75907L7.75907 10.4C7.75907 10.7314 8.06789 11 8.44883 11C8.82978 11 9.1386 10.7314 9.1386 10.4L9.1386 6.2H10.5181V10.4C10.5181 10.7314 10.827 11 11.2079 11C11.5888 11 11.8977 10.7314 11.8977 10.4L11.8977 6.2C11.8977 5.53726 11.28 5 10.5181 5H9.1386H7.75907H6.37953C5.61764 5 5 5.53726 5 6.2V10.4C5 10.7314 5.30882 11 5.68977 11ZM13.2772 6.2C13.2772 5.53726 13.8948 5 14.6567 5H16.726C17.4879 5 18.1056 5.53726 18.1056 6.2V7.4V8.6V10.4C18.1056 10.7314 17.7967 11 17.4158 11C17.0349 11 16.726 10.7314 16.726 10.4V8.6H14.6567V10.4C14.6567 10.7314 14.3479 11 13.967 11C13.586 11 13.2772 10.7314 13.2772 10.4V8.6V7.4V6.2ZM16.726 6.2V7.4L14.6567 7.4V6.2L16.726 6.2ZM19.7997 5.11773C20.1313 4.91506 20.5886 4.98264 20.8247 5.26919L22.2429 6.99112L23.6611 5.26919C23.8971 4.98264 24.3545 4.91506 24.6861 5.11773C25.026 5.32552 25.102 5.73621 24.8543 6.02633L23.1692 7.99998L24.8543 9.97362C25.102 10.2637 25.026 10.6744 24.6861 10.8822C24.3545 11.0849 23.8971 11.0173 23.6611 10.7308L22.2429 9.00883L20.8247 10.7308C20.5886 11.0173 20.1313 11.0849 19.7997 10.8822C19.4598 10.6744 19.3838 10.2637 19.6315 9.97362L21.3166 7.99998L19.6315 6.02633C19.3838 5.73621 19.4598 5.32552 19.7997 5.11773Z" fill="#3E3E3E"/>
</svg>

<svg width="30" height="16" fill="none" xmlns="http://www.w3.org/2000/svg"><path fill-rule="evenodd" clip-rule="evenodd" d="M2 0a2 2 0 0 0-2 2v12a2 2 0 0 0 2 2h26a2 2 0 0 0 2-2V2a2 2 0 0 0-2-2H2Zm3.69 11c.38 0 .69-.269.69-.6V6.2h1.38v4.2c0 .331.308.6.689.6.38 0 .69-.269.69-.6V6.2h1.38v4.2c0 .331.308.6.689.6.38 0 .69-.269.69-.6V6.2c0-.663-.618-1.2-1.38-1.2H6.38C5.619 5 5 5.537 5 6.2v4.2c0 .331.309.6.69.6Zm7.587-4.8c0-.663.618-1.2 1.38-1.2h2.069c.762 0 1.38.537 1.38 1.2v4.2c0 .331-.31.6-.69.6-.381 0-.69-.269-.69-.6V8.6h-2.07v1.8c0 .331-.308.6-.689.6-.381 0-.69-.269-.69-.6V6.2Zm3.449 0v1.2h-2.07V6.2h2.07ZM19.8 5.118c.331-.203.789-.135 1.025.151l1.418 1.722L23.66 5.27c.236-.286.694-.354 1.025-.151.34.208.416.618.168.908L23.17 8l1.685 1.974c.248.29.172.7-.168.908-.331.203-.789.135-1.025-.151l-1.418-1.722-1.418 1.722c-.236.286-.694.354-1.025.151-.34-.208-.416-.618-.169-.908L21.317 8 19.63 6.026c-.247-.29-.171-.7.169-.908Z" fill="#3E3E3E"/></svg>
